X:1
T: Kaim Park
C:C Sherrit
R:Jig
Q:180
K:D
M:6/8
L:1/16
g2|:a4A2 f2e2d2|B2G2B2 e2d2B2|A2B2c2 d4e2|f2a2f2 e2f2g2|
a4A2 f2e2d2|g2B2B2 e4d2|c2B2c2 A2c2e2|1d6 d2f2g2:|2d6 d2e2d2|
|:c2e2e2 A2e2e2|d2e2f2 f2e2d2|g4B2 B2e2d2|c2e2c2 B2A2A2|
a2A2a2 f2e2d2|g2B2B2 e4d2|c2B2c2 A2c2e2|1d6 d2e2d2:|2d6 d4||
